X:1
T:Guide Me
T:Guide Me
T:Charles Hutchinson Gabriel
T:Eric Gambrell, 1911
T:Public Domain Courtesy of the Cyber Hymnal™
T:Public Domain Courtesy of the Cyber Hymnal™
C:Charles Hutchinson Gabriel
Z:Public Domain
Z:Courtesy of the Cyber Hymnal™
%%score ( 1 2 ) ( 3 4 )
L:1/8
Q:1/4=90
M:3/4
K:D
V:1 treble 
V:2 treble 
V:3 bass 
V:4 bass 
V:1
 [DF][DE] D | [FA]3 [GB] [DF][CE] | D3 D DD | [Dd]4 [GB]2 | [FA]3 [FA] [FA][EA] | %5
w: 1.~Hide not Thy|face, O Lord of|Grace; Thou who hast|tast- ed|woe; Thro’ er- ror’s|
w: 2.~On Cal- v’ry’s|tree a thief to|Thee Turned his re-|pent- ant|eyes, And for the|
w: 3.~E’en so thro’|tears of bur- dened|years Earth’s child- ren|cry to|Thee, Whose blood was|
w: 4.~Con- trite they|plead their ev- ery|need, Thy grace will|e’en ful-|fill, To life’s last|
 [EB]3 [EB] [Ec][Ed] | [Ec]4 [Ec]2 | [Dd]3 [EG] [DF][CE] | D4 z2 | (z2 [CB]2) x2 | (z2 [FA]2) x2 | %11
w: night lend Thou Thy|light To|guide me as I|go!|||
w: gloom of death’s dark|doom Thou|gav- est Par- a-|dise!|||
w: spilt that hu- man|guilt Be|par- doned, full and|free!|||
w: breath, thro’ gloom of|death, Guide|Thou the way- ward|still!|||
 [FB]3 [FB] [^GB][Gd] | [Gc]3 [EA] [DA][GA] | [Fd]3 [Fd] [Gd][Ad] | [Gd]4 D2 | %15
w: Guide me, guide me,|in this world of|woe; Thro’ er- ror’s|night lend|
w: Guide me, guide me,|guard me with Thine|eyes, And for the|gloom of|
w: Guide me, guide me,|hear my cry to|Thee, Whose blood was|spilt that|
w: Guide me, guide me,|that I do Thy|will, To life’s last|breath, thro’|
 [DA]3 [EG] [DF][CE] | D3 |] %17
w: Thou Thy light To|guide|
w: death’s dark doom Thou|gav-|
w: hu- man guilt Be|par-|
w: gloom of death, Guide|Thou|
V:2
 x2 D | x6 | D3 D DD | x6 | x6 | x6 | x6 | x6 | D4 x2 | (E4 C2) | (F4 D2) | x6 | x6 | x6 | x4 D2 | %15
 x6 | D3 |] %17
V:3
 [D,A,][D,G,] [D,F,] | [D,D]3 [G,D] A,[A,,G,] | [D,F,]3 [D,F,] [E,G,][F,A,] | [G,B,]4 [G,D]2 | %4
 [D,D]3 [D,D] [D,D][C,A,] | [E,^G,]3 [E,G,] [E,A,][E,B,] | A,4 [G,A,]2 | [F,A,]3 [G,B,] A,[A,,G,] | %8
 [F,A,]4 z2 | z2 [A,,G,]2 [A,,G,]2 | z2 [D,A,]2 [D,D]2 | [B,,D]3 [B,,D] [E,D][E,E] | %12
 [A,E]3 [A,D] [F,E][E,C] | [D,A,]3 [D,A,] [E,A,][F,=C] | [G,B,]4 [G,_B,]2 | %15
 [F,A,]3 [G,B,] A,[A,,G,] | [D,F,]3 |] %17
V:4
 x3 | x4 A, x | x6 | x6 | x6 | x6 | A,4 x2 | x4 A, x | x6 | x6 | x6 | x6 | x6 | x6 | x6 | x4 A, x | %16
 x3 |] %17

